Newaita-dark/actions/22/edit-paste.svg

<svg height="22" viewBox="0 0 22 22" width="22" xmlns="http://www.w3.org/2000/svg"><g fill="#e0e0e0"><path d="m4.550781 2c-.5 0-.902343.40625-.902343.90625v8.183594c0 .5.402343.90625.902343.90625h6.367188c.5 0 .90625-.40625.90625-.90625v-6.367188c0-.238281-.09375-.46875-.265625-.636718l-1.816406-1.820313c-.171876-.171875-.402344-.265625-.640626-.265625zm.90625 1.808594h3.269531l1.289063 1.289062v5.089844h-4.558594zm0 0"/><path d="m13.644531 1.996094v2.183594l2.730469 2.734374v3.261719h-.003906v7.277344c0 .503906-.402344.910156-.90625.910156h-9.097656c-.503907 0-.910157-.40625-.910157-.910156v-3.636719h-1.820312v4.546875c0 1.007813.8125 1.820313 1.820312 1.820313h10.914063c1.007812 0 1.820312-.8125 1.820312-1.820313v-8.1875h-.003906v-3.636719c0-.238281-.09375-.46875-.265625-.640624l-3.636719-3.636719c-.171875-.171875-.402344-.265625-.640625-.265625zm0 0"/></g></svg>

<svg xmlns="http://www.w3.org/2000/svg" xmlns:xlink="http://www.w3.org/1999/xlink" width="22px" height="22px" viewBox="0 0 22 22" version="1.1">
<g id="surface1">
     <defs>
  <style id="current-color-scheme" type="text/css">
   .ColorScheme-Text { color:#eeeeee; } .ColorScheme-Highlight { color:#424242; }
  </style>
 </defs>
<path style="fill:currentColor" class="ColorScheme-Text" d="M 4.550781 2 C 4.050781 2 3.648438 2.40625 3.648438 2.90625 L 3.648438 11.089844 C 3.648438 11.589844 4.050781 11.996094 4.550781 11.996094 L 10.917969 11.996094 C 11.417969 11.996094 11.824219 11.589844 11.824219 11.089844 L 11.824219 4.722656 C 11.824219 4.484375 11.730469 4.253906 11.558594 4.085938 L 9.742188 2.265625 C 9.570312 2.09375 9.339844 2 9.101562 2 Z M 5.457031 3.808594 L 8.726562 3.808594 L 10.015625 5.097656 L 10.015625 10.1875 L 5.457031 10.1875 Z M 5.457031 3.808594 "/>
     <defs>
  <style id="current-color-scheme" type="text/css">
   .ColorScheme-Text { color:#eeeeee; } .ColorScheme-Highlight { color:#424242; }
  </style>
 </defs>
<path style="fill:currentColor" class="ColorScheme-Text" d="M 13.644531 1.996094 L 13.644531 4.179688 L 16.375 6.914062 L 16.375 10.175781 L 16.371094 10.175781 L 16.371094 17.453125 C 16.371094 17.957031 15.96875 18.363281 15.464844 18.363281 L 6.367188 18.363281 C 5.863281 18.363281 5.457031 17.957031 5.457031 17.453125 L 5.457031 13.816406 L 3.636719 13.816406 L 3.636719 18.363281 C 3.636719 19.371094 4.449219 20.183594 5.457031 20.183594 L 16.371094 20.183594 C 17.378906 20.183594 18.191406 19.371094 18.191406 18.363281 L 18.191406 10.175781 L 18.1875 10.175781 L 18.1875 6.539062 C 18.1875 6.300781 18.09375 6.070312 17.921875 5.898438 L 14.285156 2.261719 C 14.113281 2.089844 13.882812 1.996094 13.644531 1.996094 Z M 13.644531 1.996094 "/>
</g>
</svg>
